public/avatar/body/147.svg

<svg xmlns:xlink="http://www.w3.org/1999/xlink" height="82" width="84.85" xmlns="http://www.w3.org/2000/svg"><g transform="translate(37.4 42.25)"><use height="38" transform="translate(-11.95 -17.45)" width="32.05" xlink:href="#a"/><use height="38.95" transform="translate(-12.45 -17.95)" width="33.05" xlink:href="#b"/><use height="24.55" transform="translate(-14.45 .25)" width="36.6" xlink:href="#c"/></g><defs><path d="M27.35 7.4q2.15 4.15 3.55 8.75 1.45 4.7 1.15 9.5-.35 4.95-4.2 8.1-3.8 3.2-8.75 4.05l-2.6.2q-3.6 0-7.05-1.15-4.65-1.6-7.1-5.5Q-.2 27.4.05 23q.2-4.4 2-9.3Q3.85 8.75 7 5.05 10.1 1.3 14.7.1l1.8-.1q1.9.05 3.7.8 4.75 2.05 7.15 6.6" fill="#fff" fill-rule="evenodd" transform="translate(-.05)" id="d"/><path d="M27.35 7.4Q24.95 2.85 20.2.8 17.55-.3 14.7.1 10.1 1.3 7 5.05q-3.15 3.7-4.95 8.65-1.8 4.9-2 9.3-.25 4.4 2.3 8.35 2.45 3.9 7.1 5.5 4.65 1.55 9.65.95 4.95-.85 8.75-4.05 3.85-3.15 4.2-8.1.3-4.8-1.15-9.5-1.4-4.6-3.55-8.75Z" fill="none" stroke="#333" stroke-linecap="round" stroke-linejoin="round" transform="translate(.45 .5)" id="e"/><use height="38" width="32.05" xlink:href="#d" id="a"/><use height="38.95" width="33.05" xlink:href="#e" id="b"/><g id="c" fill-rule="evenodd"><path d="M12.9 7.25v-1.5q4-.9 6.35-4.05l.5-.85q1 1.5.85 6-.15 4.5 1.55 9.75-3.2 4-9.25 5.05V20.4l1.2-.15q4.3-.6 7.15-3.85-2.05-6.75-1.4-13.75l-.45.7q-2.15 3.1-5.95 3.75l-.55.15M-3.9 20.4v1.4l-4.15-1.9-6.4-3.45.95-4.7Q-12.15 6.4-12.3.8l.95.9Q-8.2 4.65-4.1 5.95l.2 1.6Q-7.2 6.45-10 4.2l-1.85-1.55q.4 3.5.15 6.8-.25 2.7-1 5.15l-.35 1.05-.2.4.6.4 4.15 2.05q1 .5 2.05.95l.65.25 1.9.7" fill="#2c0233" transform="translate(14.45 -.25)"/><path d="M12.9 20.4v-.1q2.9-.45 5.5-1.95l1.3-.75-3.25-6.5q-.15 2.45-1.9 4.15l-.85.85-.25-9q3.8-.65 5.95-3.75l.45-.7q-.65 7 1.4 13.75-2.85 3.25-7.15 3.85l-1.2.15M-3.9 7.55v6.7q-1.85 1.3-3.9 2.15l-1.5.6q.95-2.25 1.2-4.5-2.1 2.35-4.55 3.95l-.6-.4.2-.4L-12 14.5q2.15-2.3 3.65-4.75l1.2 1.3 1.05 1.2.95-2.8L-11 6.5v1.1q-.1 3.7-1.7 7 .75-2.45 1-5.15.25-3.3-.15-6.8L-10 4.2q2.8 2.25 6.1 3.35m0 12.8v.05l-1.9-.7 1.9.65" fill="#fc8e5e" transform="translate(14.45 -.25)"/><path d="M12.9 20.3V7.25l.55-.15.25 9 .85-.85q1.75-1.7 1.9-4.15l3.25 6.5-1.3.75q-2.6 1.5-5.5 1.95m-16.8-6.05v6.1l-1.9-.65-.65-.25Q-7.5 19-8.5 18.5l-4.15-2.05q2.45-1.6 4.55-3.95-.25 2.25-1.2 4.5l1.5-.6q2.05-.85 3.9-2.15" fill="#f26140" transform="translate(14.45 -.25)"/><path d="m-13.05 15.65.35-1.05q1.6-3.3 1.7-7V6.5l5.85 2.95-.95 2.8-1.05-1.2-1.2-1.3Q-9.85 12.2-12 14.5l-1.05 1.15" fill="#ffddd4" transform="translate(14.45 -.25)"/><path d="M20.85.9q1.2 1.55.25 3.05-2.45 3.9-7.25 5.1 1.35 5.75 3.7 11.15-.15 1.35-1.3 2.35-1.75 1.5-3.95.4L11.65 24 8 24.75q-.35.05-.9-1.3l.2-.05h-.5l.2.2q-2.65 2.4-5.6 0l-.8.4-2.1.2q-1.65-.3-2.6-1.7l-1.25.45-1.6-.25q-1.15-.75-1.6-2.05Q-5.4 15.45-4.8 9.3-7 8.8-8.9 7.55q-4.6-2.9-3-7.15 4 3.7 8.95 5.5 5.8 2.2 12.1 1.2 6.8-1.05 10.5-6.8l.65-.05.55.65M15 7.35q2.75-1.05 4.6-3.15l.85-1-.3-1.85q-1.35 1.8-3.1 3.3l-.8.65-4.4 1.85q-3.7 1.2-7.65 1.1-6.1-.1-11.5-3.1l.35.3-2.4-1.55-2.7-2.3-.15 1.55 3.65 2.9 1.15.55q2.2 1.05 3.95 2.6l-1.85 6.45-1.65 4.55.3.75.4.3 1.2.5 1.4-.65.2.3 1.55.95.65.35q1.25.75 2.45-.25l.45-.45.1.6.7.6 1.4.2 2.85-.55.35-.8.4.5q.95 1.05 2.1.45l1.45-.35.85-1.2 1.65.6 1.65-.25 1.05-1.6-.7-1.6q-1.05-2.65-1.7-5.3l-1.15-4.8L15 7.35" fill="#2c0233" transform="translate(14.45 -.25)"/><path d="M16.25 5.3 15 7.35 12.65 8.5l1.15 4.8-.5-1.9q.6 5.45.2 10.65l-1.65-.6q-.15-2.6-.8-5.25l-.35-1.45L9.55 23q-1.15.6-2.1-.45l-.4-.5-.15-5.85-3.05 7.2-1.4-.2-.7-.6-.1-.6.5-6.05-3.4 6.75-.65-.35.6-2.6-1.35-1.05-.8 2.7-.2-.3 2.05-7.6-3.45 8.25-1.2-.5q3.2-4.1 2.85-10.75l-.05-1.3Q-5.2 7.65-7.4 6.6l-1.15-.55-.8-2.15 2.4 1.55q4.3 3.1 9.55 3.7 4.55.7 9.1 0L8.15 8.5l6.2-2.15-2.5.8 4.4-1.85m-22.9 15.65-.3-.75 1.65-4.55-1.35 5.3" fill="#ffdce5" transform="translate(14.45 -.25)"/><path d="m16.25 5.3.8-.65q1.75-1.5 3.1-3.3l.3 1.85-.85 1Q17.75 6.3 15 7.35l1.25-2.05m-2.45 8q.65 2.65 1.7 5.3l.7 1.6-1.05 1.6-1.65.25q.4-5.2-.2-10.65l.5 1.9m-1.95 8.15-.85 1.2-1.45.35 1.15-8.25.35 1.45q.65 2.65.8 5.25m-4.8.6-.35.8-2.85.55 3.05-7.2.15 5.85M1.65 22l-.45.45q-1.2 1-2.45.25l3.4-6.75-.5 6.05m-5.3-.9-1.4.65 3.45-8.25-2.05 7.6m-4.9-15.05-3.65-2.9.15-1.55 2.7 2.3.8 2.15" fill="#eb8fe5" transform="translate(14.45 -.25)"/><path d="m-1.9 22.35-1.55-.95.8-2.7 1.35 1.05-.6 2.6m-4.35-1.1-.4-.3 1.35-5.3 1.85-6.45.05 1.3q.35 6.65-2.85 10.75m-.7-15.8-.35-.3q5.4 3 11.5 3.1 3.95.1 7.65-1.1l2.5-.8-6.2 2.15 3.55.65q-4.55.7-9.1 0-5.25-.6-9.55-3.7" fill="#fff" transform="translate(14.45 -.25)"/><path d="m2.15 19.9.8.5 1.6 1 5.75-3.3-.4-4.6-.2-2H-.8l-.35 6.5 3.3 1.9m8.9-1.25-6.4 3.45-6.75-3.8.4-7.15.3-.75 12 .35.25 1.85.35 4.15-.15 1.9" fill="#2c0233" transform="translate(14.45 -.25)"/><path d="m2.15 19.9-3.3-1.9.35-6.5H9.7l.2 2q-.25 2.5-2 4.6l-.75-2.45q-.7 1.4-1.95 2.35-1.75 1.3-3.9 1.4l.85.5m1-5.35q2.65-.95 4.8-2.8l-8.65-.1-.35 6.1.85-.9q1.45-1.55 3.35-2.3" fill="#ffdce5" transform="translate(14.45 -.25)"/><path d="m2.95 20.4-.8-.5-.85-.5q2.15-.1 3.9-1.4 1.25-.95 1.95-2.35l.75 2.45q1.75-2.1 2-4.6l.4 4.6-5.75 3.3-1.6-1" fill="#eb8fe5" transform="translate(14.45 -.25)"/><path d="M3.15 14.55q-1.9.75-3.35 2.3l-.85.9.35-6.1 8.65.1q-2.15 1.85-4.8 2.8" fill="#fff" transform="translate(14.45 -.25)"/><path d="m3.75 12 .2 1q.75 3.3 4 4.5-.95 1.7-2.8 2.15-2.85.75-3.9-1.75Q-.3 14 3.75 12m2.7 5.35-.55-.25q-.3 0-.5.25-.25.2-.25.5l.25.55.5.2.55-.2.2-.55-.2-.5m-2.95-3.6.1-.8-.05-.45-1.05.85-.35.9-.9 1.5q-.4.4-.2.9l.15.15.95 1.7.4.35-.8-1.95.4-.4.15-.2-.45-.6.5-.65-.1-.55.25.2.65.05.35-1m.8 3.15q.3 0 .5-.2l.2-.5-.2-.5-.5-.2-.5.2-.2.5.2.5.5.2m-1 .8-.45.2-.2.5.2.5.45.2q.25 0 .45-.2l.2-.5-.2-.5-.45-.2" fill="#e00000" transform="translate(14.45 -.25)"/><path d="M3.75 12Q5 11.55 6.2 12l-2.1.15q.35 1.1 1.45 2.05l2-.95q-.35-.7-.9-1.05L6.2 12l.45.2q.55.35.9 1.05l-2 .95q-1.1-.95-1.45-2.05L6.2 12q-1.2-.45-2.45 0-4.05 2-2.5 5.9 1.05 2.5 3.9 1.75Q7 19.2 7.95 17.5q-3.25-1.2-4-4.5l-.2-1m2.9.2.6.4q2.5 1.95.7 4.9 1.8-2.95-.7-4.9l-.6-.4m-.2 5.15.2.5-.2.55-.55.2-.5-.2-.25-.55q0-.3.25-.5.2-.25.5-.25l.55.25m-3.95-4 .4.8.55-.4h.05l-.35 1-.65-.05-.25-.2-.1-.25.35-.9m-.65 2.35.45.6-.15.2-.4.4v-.05l.1-1.15m-.65 1.1-.15-.15q-.2-.5.2-.9v.05l-.05.95v.05m2.1.9.45.2.2.5-.2.5q-.2.2-.45.2l-.45-.2-.2-.5.2-.5.45-.2m1-.8-.5-.2-.2-.5.2-.5.5-.2.5.2.2.5-.2.5q-.2.2-.5.2" transform="translate(14.45 -.25)"/><path d="m3.45 13.75-.95-.4 1.05-.85.05.45-.1.8h-.05m-1.2.75.1.55-.5.65-.6.1v-.05l.9-1.5.1.25m-.5 2.4.8 1.95-.4-.35-.95-1.7v-.05l.55.1v.05" fill="#f9cccc" transform="translate(14.45 -.25)"/><path d="m3.45 13.75-.55.4-.4-.8.95.4m-1.6 1.95-.1 1.15-.55-.1.05-.95.6-.1" fill="#ccc" transform="translate(14.45 -.25)"/></g></defs></svg>

<?xml version="1.0" encoding="UTF-8" standalone="no"?>
<svg xmlns:xlink="http://www.w3.org/1999/xlink" height="82.0px" width="84.85px" xmlns="http://www.w3.org/2000/svg">
  <g transform="matrix(1.0, 0.0, 0.0, 1.0, 37.4, 42.25)">
    <use height="38.0" transform="matrix(1.0, 0.0, 0.0, 1.0, -11.95, -17.45)" width="32.05" xlink:href="#sprite0"/>
    <use height="38.95" transform="matrix(1.0, 0.0, 0.0, 1.0, -12.45, -17.95)" width="33.05" xlink:href="#sprite1"/>
    <use height="24.55" transform="matrix(1.0, 0.0, 0.0, 1.0, -14.45, 0.25)" width="36.6" xlink:href="#shape2"/>
  </g>
  <defs>
    <g id="sprite0" transform="matrix(1.0, 0.0, 0.0, 1.0, -0.05, 0.0)">
      <use height="38.0" transform="matrix(1.0, 0.0, 0.0, 1.0, 0.05, 0.0)" width="32.05" xlink:href="#shape0"/>
    </g>
    <g id="shape0" transform="matrix(1.0, 0.0, 0.0, 1.0, -0.05, 0.0)">
      <path d="M27.35 7.4 Q29.5 11.55 30.9 16.15 32.35 20.85 32.05 25.65 31.7 30.6 27.85 33.75 24.05 36.95 19.1 37.8 L16.5 38.0 Q12.9 38.0 9.45 36.85 4.8 35.25 2.35 31.35 -0.2 27.4 0.05 23.0 0.25 18.6 2.05 13.7 3.85 8.75 7.0 5.05 10.1 1.3 14.7 0.1 L16.5 0.0 Q18.4 0.05 20.2 0.8 24.95 2.85 27.35 7.4" fill="#ffffff" fill-rule="evenodd" stroke="none"/>
    </g>
    <g id="sprite1" transform="matrix(1.0, 0.0, 0.0, 1.0, 0.45, 0.5)">
      <use height="38.95" transform="matrix(1.0, 0.0, 0.0, 1.0, -0.45, -0.5)" width="33.05" xlink:href="#shape1"/>
    </g>
    <g id="shape1" transform="matrix(1.0, 0.0, 0.0, 1.0, 0.45, 0.5)">
      <path d="M27.35 7.4 Q24.95 2.85 20.2 0.8 17.55 -0.3 14.7 0.1 10.1 1.3 7.0 5.05 3.85 8.75 2.05 13.7 0.25 18.6 0.05 23.0 -0.2 27.4 2.35 31.35 4.8 35.25 9.45 36.85 14.1 38.4 19.1 37.8 24.05 36.95 27.85 33.75 31.7 30.6 32.05 25.65 32.35 20.85 30.9 16.15 29.5 11.55 27.35 7.4 Z" fill="none" stroke="#333333" stroke-linecap="round" stroke-linejoin="round" stroke-width="1.0"/>
    </g>
    <g id="shape2" transform="matrix(1.0, 0.0, 0.0, 1.0, 14.45, -0.25)">
      <path d="M12.9 7.25 L12.9 5.75 Q16.9 4.85 19.25 1.7 L19.75 0.85 Q20.75 2.35 20.6 6.85 20.45 11.35 22.15 16.6 18.95 20.6 12.9 21.65 L12.9 20.4 14.1 20.25 Q18.4 19.65 21.25 16.4 19.2 9.65 19.85 2.65 L19.4 3.35 Q17.25 6.45 13.45 7.1 L12.9 7.25 M-3.9 20.4 L-3.9 21.8 -8.05 19.9 -14.45 16.45 -13.5 11.75 Q-12.15 6.4 -12.3 0.8 L-11.35 1.7 Q-8.2 4.65 -4.1 5.95 L-3.9 7.55 Q-7.2 6.45 -10.0 4.2 L-11.85 2.65 Q-11.45 6.15 -11.7 9.45 -11.95 12.15 -12.7 14.6 L-13.05 15.65 -13.25 16.05 -12.65 16.45 -8.5 18.5 Q-7.5 19.0 -6.45 19.45 L-5.8 19.7 -3.9 20.4" fill="#2c0233" fill-rule="evenodd" stroke="none"/>
      <path d="M12.9 20.4 L12.9 20.3 Q15.8 19.85 18.4 18.35 L19.7 17.6 16.45 11.1 Q16.3 13.55 14.55 15.25 L13.7 16.1 13.45 7.1 Q17.25 6.45 19.4 3.35 L19.85 2.65 Q19.2 9.65 21.25 16.4 18.4 19.65 14.1 20.25 L12.9 20.4 M-3.9 7.55 L-3.9 14.25 Q-5.75 15.55 -7.8 16.4 L-9.3 17.0 Q-8.35 14.75 -8.1 12.5 -10.2 14.85 -12.65 16.45 L-13.25 16.05 -13.05 15.65 -12.0 14.5 Q-9.85 12.2 -8.35 9.75 L-7.15 11.05 -6.1 12.25 -5.15 9.45 -11.0 6.5 -11.0 7.6 Q-11.1 11.3 -12.7 14.6 -11.95 12.15 -11.7 9.45 -11.45 6.15 -11.85 2.65 L-10.0 4.2 Q-7.2 6.45 -3.9 7.55 M-3.9 20.35 L-3.9 20.4 -5.8 19.7 -3.9 20.35" fill="#fc8e5e" fill-rule="evenodd" stroke="none"/>
      <path d="M12.9 20.3 L12.9 7.25 13.45 7.1 13.7 16.1 14.55 15.25 Q16.3 13.55 16.45 11.1 L19.7 17.6 18.4 18.35 Q15.8 19.85 12.9 20.3 M-3.9 14.25 L-3.9 20.35 -5.8 19.7 -6.45 19.45 Q-7.5 19.0 -8.5 18.5 L-12.65 16.45 Q-10.2 14.85 -8.1 12.5 -8.35 14.75 -9.3 17.0 L-7.8 16.4 Q-5.75 15.55 -3.9 14.25" fill="#f26140" fill-rule="evenodd" stroke="none"/>
      <path d="M-13.05 15.65 L-12.7 14.6 Q-11.1 11.3 -11.0 7.6 L-11.0 6.5 -5.15 9.45 -6.1 12.25 -7.15 11.05 -8.35 9.75 Q-9.85 12.2 -12.0 14.5 L-13.05 15.65" fill="#ffddd4" fill-rule="evenodd" stroke="none"/>
      <path d="M20.85 0.9 Q22.05 2.45 21.1 3.95 18.65 7.85 13.85 9.05 15.2 14.8 17.55 20.2 17.4 21.55 16.25 22.55 14.5 24.05 12.3 22.95 L11.65 24.0 8.0 24.75 Q7.65 24.8 7.1 23.45 L7.3 23.4 6.8 23.4 7.0 23.6 Q4.35 26.0 1.4 23.6 L0.6 24.0 -1.5 24.2 Q-3.15 23.9 -4.1 22.5 L-5.35 22.95 -6.95 22.7 Q-8.1 21.95 -8.55 20.65 -5.4 15.45 -4.8 9.3 -7.0 8.8 -8.9 7.55 -13.5 4.65 -11.9 0.4 -7.9 4.1 -2.95 5.9 2.85 8.1 9.15 7.1 15.95 6.05 19.65 0.3 L20.3 0.25 20.85 0.9 M15.0 7.35 Q17.75 6.3 19.6 4.2 L20.45 3.2 20.15 1.35 Q18.8 3.15 17.05 4.65 L16.25 5.3 11.85 7.15 Q8.15 8.35 4.2 8.25 -1.9 8.15 -7.3 5.15 L-6.95 5.45 -9.35 3.9 -12.05 1.6 -12.2 3.15 -8.55 6.05 -7.4 6.6 Q-5.2 7.65 -3.45 9.2 L-5.3 15.65 -6.95 20.2 -6.65 20.95 -6.25 21.25 -5.05 21.75 -3.65 21.1 -3.45 21.4 -1.9 22.35 -1.25 22.7 Q0.0 23.45 1.2 22.45 L1.65 22.0 1.75 22.6 2.45 23.2 3.85 23.4 6.7 22.85 7.05 22.05 7.45 22.55 Q8.4 23.6 9.55 23.0 L11.0 22.65 11.85 21.45 13.5 22.05 15.15 21.8 16.2 20.2 15.5 18.6 Q14.45 15.95 13.8 13.3 L12.65 8.5 15.0 7.35" fill="#2c0233" fill-rule="evenodd" stroke="none"/>
      <path d="M16.25 5.3 L15.0 7.35 12.65 8.5 13.8 13.3 13.3 11.4 Q13.9 16.85 13.5 22.05 L11.85 21.45 Q11.7 18.85 11.05 16.2 L10.7 14.75 9.55 23.0 Q8.4 23.6 7.45 22.55 L7.05 22.05 6.9 16.2 3.85 23.4 2.45 23.2 1.75 22.6 1.65 22.0 2.15 15.95 -1.25 22.7 -1.9 22.35 -1.3 19.75 -2.65 18.7 -3.45 21.4 -3.65 21.1 -1.6 13.5 -5.05 21.75 -6.25 21.25 Q-3.05 17.15 -3.4 10.5 L-3.45 9.2 Q-5.2 7.65 -7.4 6.6 L-8.55 6.05 -9.35 3.9 -6.95 5.45 Q-2.65 8.55 2.6 9.15 7.15 9.85 11.7 9.15 L8.15 8.5 14.35 6.35 11.85 7.15 16.25 5.3 M-6.65 20.95 L-6.95 20.2 -5.3 15.65 -6.65 20.95" fill="#ffdce5" fill-rule="evenodd" stroke="none"/>
      <path d="M16.25 5.3 L17.05 4.65 Q18.8 3.15 20.15 1.35 L20.45 3.2 19.6 4.2 Q17.75 6.3 15.0 7.35 L16.25 5.3 M13.8 13.3 Q14.45 15.95 15.5 18.6 L16.2 20.2 15.15 21.8 13.5 22.05 Q13.9 16.85 13.3 11.4 L13.8 13.3 M11.85 21.45 L11.0 22.65 9.55 23.0 10.7 14.75 11.05 16.2 Q11.7 18.85 11.85 21.45 M7.05 22.05 L6.7 22.85 3.85 23.4 6.9 16.2 7.05 22.05 M1.65 22.0 L1.2 22.45 Q0.0 23.45 -1.25 22.7 L2.15 15.95 1.65 22.0 M-3.65 21.1 L-5.05 21.75 -1.6 13.5 -3.65 21.1 M-8.55 6.05 L-12.2 3.15 -12.05 1.6 -9.35 3.9 -8.55 6.05" fill="#eb8fe5" fill-rule="evenodd" stroke="none"/>
      <path d="M-1.9 22.35 L-3.45 21.4 -2.65 18.7 -1.3 19.75 -1.9 22.35 M-6.25 21.25 L-6.65 20.95 -5.3 15.65 -3.45 9.2 -3.4 10.5 Q-3.05 17.15 -6.25 21.25 M-6.95 5.45 L-7.3 5.15 Q-1.9 8.15 4.2 8.25 8.15 8.35 11.85 7.15 L14.35 6.35 8.15 8.5 11.7 9.15 Q7.15 9.85 2.6 9.15 -2.65 8.55 -6.95 5.45" fill="#ffffff" fill-rule="evenodd" stroke="none"/>
      <path d="M2.15 19.9 L2.95 20.4 4.55 21.4 10.3 18.1 9.9 13.5 9.7 11.5 -0.8 11.5 -1.15 18.0 2.15 19.9 M11.05 18.65 L4.65 22.1 -2.1 18.3 -1.7 11.15 -1.4 10.4 10.6 10.75 10.85 12.6 11.2 16.75 11.05 18.65" fill="#2c0233" fill-rule="evenodd" stroke="none"/>
      <path d="M2.15 19.9 L-1.15 18.0 -0.8 11.5 9.7 11.5 9.9 13.5 Q9.65 16.0 7.9 18.1 L7.15 15.65 Q6.45 17.05 5.2 18.0 3.45 19.3 1.3 19.4 L2.15 19.9 M3.15 14.55 Q5.8 13.6 7.95 11.75 L-0.7 11.65 -1.05 17.75 -0.2 16.85 Q1.25 15.3 3.15 14.55" fill="#ffdce5" fill-rule="evenodd" stroke="none"/>
      <path d="M2.95 20.4 L2.15 19.9 1.3 19.4 Q3.45 19.3 5.2 18.0 6.45 17.05 7.15 15.65 L7.9 18.1 Q9.65 16.0 9.9 13.5 L10.3 18.1 4.55 21.4 2.95 20.4" fill="#eb8fe5" fill-rule="evenodd" stroke="none"/>
      <path d="M3.15 14.55 Q1.25 15.3 -0.2 16.85 L-1.05 17.75 -0.7 11.65 7.95 11.75 Q5.8 13.6 3.15 14.55" fill="#ffffff" fill-rule="evenodd" stroke="none"/>
      <path d="M3.75 12.0 L3.95 13.0 Q4.7 16.3 7.95 17.5 7.0 19.2 5.15 19.65 2.3 20.4 1.25 17.9 -0.3 14.0 3.75 12.0 M6.45 17.35 L5.9 17.1 Q5.6 17.1 5.4 17.35 5.15 17.55 5.15 17.85 L5.4 18.4 5.9 18.6 6.45 18.4 6.65 17.85 6.45 17.35 M3.5 13.75 L3.6 12.95 3.55 12.5 2.5 13.35 2.15 14.25 1.25 15.75 Q0.85 16.15 1.05 16.65 L1.2 16.8 2.15 18.5 2.55 18.85 1.75 16.9 2.15 16.5 2.3 16.3 1.85 15.7 2.35 15.05 2.25 14.5 2.5 14.7 3.15 14.75 3.5 13.75 M4.3 16.9 Q4.6 16.9 4.8 16.7 L5.0 16.2 4.8 15.7 4.3 15.5 3.8 15.7 3.6 16.2 3.8 16.7 4.3 16.9 M3.3 17.7 L2.85 17.9 2.65 18.4 2.85 18.9 3.3 19.1 Q3.55 19.1 3.75 18.9 L3.95 18.4 3.75 17.9 3.3 17.7" fill="#e00000" fill-rule="evenodd" stroke="none"/>
      <path d="M3.75 12.0 Q5.0 11.55 6.2 12.0 L4.1 12.15 Q4.45 13.25 5.55 14.2 L7.55 13.25 Q7.2 12.55 6.65 12.2 L6.2 12.0 6.65 12.2 Q7.2 12.55 7.55 13.25 L5.55 14.2 Q4.45 13.25 4.1 12.15 L6.2 12.0 Q5.0 11.55 3.75 12.0 -0.3 14.0 1.25 17.9 2.3 20.4 5.15 19.65 7.0 19.2 7.95 17.5 4.7 16.3 3.95 13.0 L3.75 12.0 M6.65 12.2 L7.25 12.6 Q9.75 14.55 7.95 17.5 9.75 14.55 7.25 12.6 L6.65 12.2 M6.45 17.35 L6.65 17.85 6.45 18.4 5.9 18.6 5.4 18.4 5.15 17.85 Q5.15 17.55 5.4 17.35 5.6 17.1 5.9 17.1 L6.45 17.35 M2.5 13.35 L2.9 14.15 3.45 13.75 3.5 13.75 3.15 14.75 2.5 14.7 2.25 14.5 2.15 14.25 2.5 13.35 M1.85 15.7 L2.3 16.3 2.15 16.5 1.75 16.9 1.75 16.85 1.85 15.7 M1.2 16.8 L1.05 16.65 Q0.85 16.15 1.25 15.75 L1.25 15.8 1.2 16.75 1.2 16.8 M3.3 17.7 L3.75 17.9 3.95 18.4 3.75 18.9 Q3.55 19.1 3.3 19.1 L2.85 18.9 2.65 18.4 2.85 17.9 3.3 17.7 M4.3 16.9 L3.8 16.7 3.6 16.2 3.8 15.7 4.3 15.5 4.8 15.7 5.0 16.2 4.8 16.7 Q4.6 16.9 4.3 16.9" fill="#000000" fill-rule="evenodd" stroke="none"/>
      <path d="M3.45 13.75 L2.5 13.35 3.55 12.5 3.6 12.95 3.5 13.75 3.45 13.75 M2.25 14.5 L2.35 15.05 1.85 15.7 1.25 15.8 1.25 15.75 2.15 14.25 2.25 14.5 M1.75 16.9 L2.55 18.85 2.15 18.5 1.2 16.8 1.2 16.75 1.75 16.85 1.75 16.9" fill="#f9cccc" fill-rule="evenodd" stroke="none"/>
      <path d="M3.45 13.75 L2.9 14.15 2.5 13.35 3.45 13.75 M1.85 15.7 L1.75 16.85 1.2 16.75 1.25 15.8 1.85 15.7" fill="#cccccc" fill-rule="evenodd" stroke="none"/>
    </g>
  </defs>
</svg>
